img/16plus.svg

<?xml version="1.0" encoding="utf-8"?>
<!-- Generator: Adobe Illustrator 22.0.0, SVG Export Plug-In . SVG Version: 6.00 Build 0)  -->
<svg version="1.1" id="Layer_1" xmlns="http://www.w3.org/2000/svg" xmlns:xlink="http://www.w3.org/1999/xlink" x="0px" y="0px"
	 viewBox="0 0 180.2 100.5" style="enable-background:new 0 0 180.2 100.5;" xml:space="preserve">
<style type="text/css">
	.st0{fill:#CF693A;}
</style>
<polygon class="st0" points="154.6,17.2 138.7,17.2 138.7,44.6 112.9,44.6 112.9,59.5 138.7,59.5 138.7,88.8 154.6,88.8 154.6,59.5 
	180.3,59.5 180.3,44.6 154.6,44.6 "/>
<path class="st0" d="M92.7,42.7c-5-6.1-11.9-9.2-20.6-9.2c-8.2,0-14.9,2.8-20.2,8.3c1-9,4.3-16,9.8-20.9c5.5-4.9,12.8-7.4,22-7.6h2
	V-0.2h-1.7c-15.8,0-27.8,4.9-36.2,14.7C39.4,24.3,35.3,37.8,35.3,55v5.6c0,11.8,3,21.3,9.2,28.5c6.1,7.2,14.1,10.9,23.9,10.9
	c9.5,0,17.3-3.1,23.1-9.3c5.9-6.2,8.8-14.3,8.8-24.3C100.2,56.8,97.7,48.9,92.7,42.7z M79.7,81.3c-2.8,3.6-6.7,5.5-11.5,5.5
	c-4.9,0-8.8-2.1-11.9-6.5c-3.1-4.3-4.6-10.1-4.6-17.4v-5c1.4-3.4,3.6-6.1,6.6-8.1c3-2,6.3-3,9.9-3c4.8,0,8.6,1.9,11.5,5.6
	c2.9,3.7,4.3,8.6,4.3,14.5C83.9,72.8,82.5,77.6,79.7,81.3z"/>
<polygon class="st0" points="16.4,0 14.3,0 -24,14.1 -24,27.9 0.1,19.6 0.1,98.6 16.4,98.6 "/>
</svg>

<?xml version="1.0" encoding="UTF-8" standalone="no"?>
<!-- Generator: Adobe Illustrator 22.0.0, SVG Export Plug-In . SVG Version: 6.00 Build 0)  -->

<svg
   xmlns:dc="http://purl.org/dc/elements/1.1/"
   xmlns:cc="http://creativecommons.org/ns#"
   xmlns:rdf="http://www.w3.org/1999/02/22-rdf-syntax-ns#"
   xmlns:svg="http://www.w3.org/2000/svg"
   xmlns="http://www.w3.org/2000/svg"
   xmlns:sodipodi="http://sodipodi.sourceforge.net/DTD/sodipodi-0.dtd"
   xmlns:inkscape="http://www.inkscape.org/namespaces/inkscape"
   version="1.1"
   id="Layer_1"
   x="0px"
   y="0px"
   viewBox="0 0 204.30001 100.2"
   xml:space="preserve"
   sodipodi:docname="16plus.svg"
   inkscape:version="0.92.3 (5aff6ba, 2018-11-25)"
   width="204.3"
   height="100.2"><metadata
   id="metadata15"><rdf:RDF><cc:Work
       rdf:about=""><dc:format>image/svg+xml</dc:format><dc:type
         rdf:resource="http://purl.org/dc/dcmitype/StillImage" /><dc:title></dc:title></cc:Work></rdf:RDF></metadata><defs
   id="defs13" /><sodipodi:namedview
   pagecolor="#ffffff"
   bordercolor="#666666"
   borderopacity="1"
   objecttolerance="10"
   gridtolerance="10"
   guidetolerance="10"
   inkscape:pageopacity="0"
   inkscape:pageshadow="2"
   inkscape:window-width="1867"
   inkscape:window-height="1176"
   id="namedview11"
   showgrid="false"
   inkscape:zoom="1.685"
   inkscape:cx="187.52484"
   inkscape:cy="-65.365123"
   inkscape:window-x="53"
   inkscape:window-y="24"
   inkscape:window-maximized="1"
   inkscape:current-layer="g828"
   fit-margin-top="0"
   fit-margin-left="0"
   fit-margin-right="0"
   fit-margin-bottom="0" />
<style
   type="text/css"
   id="style2">
	.st0{fill:#CF693A;}
</style>


<g
   id="g828"
   transform="translate(24,0.2)"><g
     id="obj"><polygon
       class="st0"
       points="138.7,44.6 112.9,44.6 112.9,59.5 138.7,59.5 138.7,88.8 154.6,88.8 154.6,59.5 180.3,59.5 180.3,44.6 154.6,44.6 154.6,17.2 138.7,17.2 "
       id="polygon4"
       style="fill:#cf693a" /><path
       class="st0"
       d="m 92.7,42.7 c -5,-6.1 -11.9,-9.2 -20.6,-9.2 -8.2,0 -14.9,2.8 -20.2,8.3 1,-9 4.3,-16 9.8,-20.9 5.5,-4.9 12.8,-7.4 22,-7.6 h 2 V -0.2 H 84 C 68.2,-0.2 56.2,4.7 47.8,14.5 39.4,24.3 35.3,37.8 35.3,55 v 5.6 c 0,11.8 3,21.3 9.2,28.5 6.1,7.2 14.1,10.9 23.9,10.9 9.5,0 17.3,-3.1 23.1,-9.3 5.9,-6.2 8.8,-14.3 8.8,-24.3 -0.1,-9.6 -2.6,-17.5 -7.6,-23.7 z m -13,38.6 C 76.9,84.9 73,86.8 68.2,86.8 63.3,86.8 59.4,84.7 56.3,80.3 53.2,76 51.7,70.2 51.7,62.9 v -5 c 1.4,-3.4 3.6,-6.1 6.6,-8.1 3,-2 6.3,-3 9.9,-3 4.8,0 8.6,1.9 11.5,5.6 2.9,3.7 4.3,8.6 4.3,14.5 -0.1,5.9 -1.5,10.7 -4.3,14.4 z"
       id="path6"
       inkscape:connector-curvature="0"
       style="fill:#cf693a" /><polygon
       class="st0"
       points="-24,14.1 -24,27.9 0.1,19.6 0.1,98.6 16.4,98.6 16.4,0 14.3,0 "
       id="polygon8"
       style="fill:#cf693a" /></g></g>
</svg>
